parking.svg

<svg  viewBox="0 0 24 24" fill="currentColor"><path  d="M13.2,11H10V7H13.2A2,2 0 0,1 15.2,9A2,2 0 0,1 13.2,11M13,3H6V21H10V15H13A6,6 0 0,0 19,9C19,5.68 16.31,3 13,3Z"/></svg>

<svg fill="currentColor" viewBox="0 0 24 24"><path d="M13.2 11H10V7h3.2a2 2 0 0 1 2 2 2 2 0 0 1-2 2M13 3H6v18h4v-6h3a6 6 0 0 0 6-6c0-3.32-2.69-6-6-6"/></svg>
